X:27
T:Co saint eu anguoscha (Walzer) C (wz02292)
S:Hanny Christen. Bd.II  St. Gallen II, GraubÃ¼nden, Tessin. S.347 (wz02292) orig. C
S: BÃ¼ndner und Engadiner TÃ¤nze. S.330-349. Ãœberliefert durch Giacomin Morell, Ardez.
O:Switzerland
%%MIDI program 21
R:Walzer
M:6/8  %orig. = 3/8
L:1/8
K:C %%MIDI gchordon
G | "C"G>GG | AG^F |  GcG | G2G | "G7"F>EF | A>GF | "C"E2E | 
"D7"D>ED | D>^FA | "G"c2B | B2G | "D7"G>^FE | (DB)A | !fermata!"G"G2G | "G7"A2G | 
FEF | "C"G2F | E2G | "G7"A2G | FEF | "C"G2F | E2G | "G7"B>AG | 
B>AG | "C"e2c | "F"c2A | !fermata!"G7"G2G | B>AG | f>BB | "C"c2z2 |] 
W:
W: Co saint eu anguoscha ...
W: Co - wie (how); saint (sainter/sentir - fÃ¼hlen, to feel);
W: eu - ich (I); anguoscha - Angst / Schrecken (anxiety, fear)
% wz02292  
% Nov 13, 2016

